packages/icons/src/components/Icon/assets/small-solid/address.svg

<svg width="16" height="16" viewBox="0 0 16 16" fill="none" xmlns="http://www.w3.org/2000/svg">
<path fill-rule="evenodd" clip-rule="evenodd" d="M7.50285 14.8303L7.50684 14.8334L7.50875 14.8348C7.79522 15.0551 8.20448 15.0551 8.49148 14.8344L8.49286 14.8334L8.49685 14.8303L8.50974 14.8203C8.51744 14.8143 8.52733 14.8065 8.5393 14.7971C8.544 14.7933 8.54902 14.7894 8.55435 14.7851C8.59218 14.755 8.64587 14.7116 8.71314 14.6557C8.84761 14.5438 9.0368 14.3812 9.26247 14.1733C9.71281 13.7582 10.3137 13.1575 10.9164 12.4131C12.1039 10.9461 13.385 8.81416 13.385 6.3851C13.385 3.41099 10.974 1 7.99985 1C5.02574 1 2.61475 3.41099 2.61475 6.3851C2.61475 8.81416 3.89582 10.9461 5.08335 12.4131C5.68598 13.1575 6.28689 13.7582 6.73723 14.1733C6.9629 14.3812 7.15209 14.5438 7.28656 14.6557C7.35383 14.7116 7.40752 14.755 7.44535 14.7851C7.46427 14.8002 7.47923 14.8119 7.48996 14.8203L7.50285 14.8303ZM7.99985 8.00064C8.89208 8.00064 9.61538 7.27734 9.61538 6.3851C9.61538 5.49287 8.89208 4.76957 7.99985 4.76957C7.10762 4.76957 6.38432 5.49287 6.38432 6.3851C6.38432 7.27734 7.10762 8.00064 7.99985 8.00064Z" fill="black"/>
</svg>

<svg xmlns="http://www.w3.org/2000/svg" width="16" height="16" fill="none" viewBox="0 0 16 16">
    <path fill="#000" fill-rule="evenodd" d="m7.503 14.83.004.003.002.002c.286.22.695.22.982 0l.002-.002.004-.003.013-.01.03-.023.014-.012.16-.13a17 17 0 0 0 2.203-2.243c1.187-1.466 2.468-3.598 2.468-6.027a5.385 5.385 0 0 0-10.77 0c0 2.43 1.28 4.561 2.468 6.028a17 17 0 0 0 2.204 2.243l.158.13.045.034zM8 8a1.616 1.616 0 1 0 0-3.23A1.616 1.616 0 0 0 8 8" clip-rule="evenodd"/>
</svg>
